X: 33
M:4/4
L:1/8
K:F
|:c2|gfga g2 ab|a2 gf g2 ab|a2 gf g2 fe|defg e2 Bc| f2 ef d2 ef|g2 fg e2 fg|a2 ga fgab|g4 f4:|

